apps/symbolic/accessories-character-map-symbolic.svg

<svg height="24" viewBox="0 0 24 24" width="24" xmlns="http://www.w3.org/2000/svg"><path d="m18.3 10.2h-1.8v-1.8h1.8m0 4.5h-1.8v-1.8h1.8m-2.7-.9h-1.8v-1.8h1.8m0 4.5h-1.8v-1.8h1.8m0 5.4h-7.2v-1.8h7.2m-8.1-4.5h-1.8v-1.8h1.8m0 4.5h-1.8v-1.8h1.8m.9 0h1.8v1.8h-1.8m0-4.5h1.8v1.8h-1.8m2.7.9h1.8v1.8h-1.8m0-4.5h1.8v1.8h-1.8m8.1-4.5h-14.4c-.999 0-1.8.801-1.8 1.8v9a1.8 1.8 0 0 0 1.8 1.8h14.4a1.8 1.8 0 0 0 1.8-1.8v-9c0-.999-.81-1.8-1.8-1.8z" fill="#bebebe" stroke-width=".9"/></svg>

<?xml version="1.0" encoding="UTF-8" standalone="no"?>
<svg
   xmlns:dc="http://purl.org/dc/elements/1.1/"
   xmlns:cc="http://creativecommons.org/ns#"
   xmlns:rdf="http://www.w3.org/1999/02/22-rdf-syntax-ns#"
   xmlns:svg="http://www.w3.org/2000/svg"
   xmlns="http://www.w3.org/2000/svg"
   xmlns:sodipodi="http://sodipodi.sourceforge.net/DTD/sodipodi-0.dtd"
   xmlns:inkscape="http://www.inkscape.org/namespaces/inkscape"
   version="1.1"
   width="24"
   height="24"
   viewBox="0 0 24 24"
   id="svg2"
   inkscape:version="0.92.1 r15371"
   sodipodi:docname="accessories-character-map-symbolic.svg">
  <metadata
     id="metadata10">
    <rdf:RDF>
      <cc:Work
         rdf:about="">
        <dc:format>image/svg+xml</dc:format>
        <dc:type
           rdf:resource="http://purl.org/dc/dcmitype/StillImage" />
        <dc:title />
      </cc:Work>
    </rdf:RDF>
  </metadata>
  <defs
     id="defs8" />
  <sodipodi:namedview
     pagecolor="#ffffff"
     bordercolor="#666666"
     borderopacity="1"
     objecttolerance="10"
     gridtolerance="10"
     guidetolerance="10"
     inkscape:pageopacity="0"
     inkscape:pageshadow="2"
     inkscape:window-width="640"
     inkscape:window-height="480"
     id="namedview6"
     showgrid="false"
     inkscape:zoom="25.291667"
     inkscape:cx="5.0411862"
     inkscape:cy="12"
     inkscape:current-layer="svg2" />
  <path
     d="M 18.3,10.2 H 16.5 V 8.4 h 1.8 m 0,4.5 h -1.8 v -1.8 h 1.8 M 15.6,10.2 H 13.8 V 8.4 h 1.8 m 0,4.5 h -1.8 v -1.8 h 1.8 m 0,5.4 H 8.4 v -1.8 h 7.2 M 7.5,10.2 H 5.7 V 8.4 h 1.8 m 0,4.5 H 5.7 v -1.8 h 1.8 m 0.9,0 h 1.8 v 1.8 H 8.4 m 0,-4.5 h 1.8 v 1.8 H 8.4 m 2.7,0.9 h 1.8 v 1.8 h -1.8 m 0,-4.5 h 1.8 v 1.8 H 11.1 M 19.2,5.7 H 4.8 C 3.801,5.7 3,6.501 3,7.5 v 9 a 1.8,1.8 0 0 0 1.8,1.8 H 19.2 A 1.8,1.8 0 0 0 21,16.5 v -9 C 21,6.501 20.19,5.7 19.2,5.7 Z"
     id="path4"
     style="fill:#bebebe;fill-opacity:1;stroke-width:0.89999998"
     inkscape:connector-curvature="0" />
</svg>
